!!!COM:	Praetorius, Michael
!!!OTL:	Wholauf ihr Christen freuet euch
**kern	**kern	**kern	**kern
*ICvox	*ICvox	*ICvox	*ICvox
*I"Bassus	*I"Tenor	*I"Altus	*I"Diskantus
*clefF4	*clefGv2	*clefG2	*clefG2
*k[]	*k[]	*k[]	*k[]
*M3/1	*M3/1	*M3/1	*M3/1
*met(3)	*met(3)	*met(3)	*met(3)
1r	1r	1r	1r
1r	1r	1r	1r
1AA	1c	1e	1a
0A	0c	0e	0cc
1E	1f	1g	1b
0F	0c	0f	0a
1C	1c	1e	1g
0D	0A	0d	0f
1AA	1A	1c#	1e
0D	0A	0d	0d
=	=	=	=
1D	1A	1f#	1dd
0D	0A	0f#	0dd
1G	1B	1g	1dd
0C	0c	0g	0ee
1G	1B	1g	1dd
0A	0A	0e	0cc
1E	1G#	1e	1b
0AA	0A	0e	0a
=	=	=	=
1D	1A	1f#	1a
0BB	0Gn	0g	0dd
1GG	1d	1g	1b
0C	0c	0e	0g
1BB	1G	1d	1g
0AA	1E	0e	0cc
.	1A	.	.
1E	1G#	1e	1b
0.AA	0.A	0.c	0.a
0BB	0Gn	2B	0d
.	.	2c	.
.	.	1d	.
1C	1G	1c	1e
0D	0F	0A	0f
1GG	1D	1B	1g
=	=	=	=
0.AA	0.A	0.c#	0.e
0.D	0.F#	0.d	0.d
1r	1r	1r	1r
1r	1r	1r	1r
1AA	1c	1e	1a
0A	0c	0e	0cc
1E	1e	1g	1b
0F	0c	0fn	0a
1C	1c	1e	1g
0D	0A	0d	0f
1AA	1A	1c#	1e
0D	0A	0d	0d
=	=	=	=
1D	1A	1f#	1dd
0D	0A	0f#	0dd
1G	1B	1g	1dd
0C	0c	0g	0ee
1G	1B	1g	1dd
0A	0A	0e	0cc
1E	1G#	1e	1b
0AA	0A	0e	0a
=	=	=	=
1D	1A	1f#	1a
0BB	0Gn	0g	0dd
1GG	1d	1g	1b
0C	0c	0e	0g
1BB	1G	1d	1g
0AA	1E	0e	0cc
.	1A	.	.
1E	1G#	1e	1b
0.AA	0.A	0.c	0.a
0BB	0Gn	2B	0d
.	.	2c	.
.	.	1d	.
1C	1G	1c	1e
0D	0F	0A	0f
=	=	=	=
1GG	1D	1B	1g
0.AA	0.A	0.c#	0.e
0.D	0.F#	0.d	0.d
1r	1r	1r	1r
1r	1r	1r	1r
1D	1Fn	1A	1d
0D	0A	0d	0f
1BB	1B	1d	1g
0AA	0c	0e	0a
1E	1B	1e	1g
0C	0e	0g	0cc
1G	1d	1g	1b
0D	0d	0f#	0a
=	=	=	=
1D	1A	1f#	1dd
0G	0B	0g	0dd
1G	1B	1g	1dd
0C	0c	0g	0ee
1G	1B	1g	1dd
0A	1c	1e	0cc
.	0e	1a	.
1E	.	1g#	1b
0AA	0c#	0a	0a
=	=	=	=
1D	1d	1f#	1a
0BB	0G	0gn	0dd
1GG	1d	1g	1b
0C	1cn	0e	0g
.	0G	.	.
1BB	.	1d	1g
0AA	1E	0e	0cc
.	1A	.	.
1E	1G	1e	1b
0F	0A	0c	0a
1D	1F	1d	1b
0C	0G	0e	0cc
1F	1A	1c	1a
0D	0A	0d	0f
1BB	1D	1d	1g
0AA	0E	0c#	0a
=	=	=	=
1AA	1E	1cn	1a
0BB	0G	2B	0d
.	.	2c	.
.	.	1d	.
1C	1G	1c	1e
0D	0F	0A	0f
1GG	1D	1B	1g
0AA	0A	0c#	0e
1AA	1E	1c#	1e
00D	00F#	1d	00d
.	.	0.A	.
==	==	==	==
*-	*-	*-	*-
